dist/assets/images/sixthPart/Group 1370.svg

<svg width="65" height="60" viewBox="0 0 65 60" fill="none" xmlns="http://www.w3.org/2000/svg">
<g id="Group 1370">
<path id="Vector" d="M9.35252 14.8485L6.22724 26.1116C6.01674 26.867 5.97127 27.6589 6.09391 28.4334C6.21655 29.208 6.50444 29.9471 6.93802 30.6005C9.14181 33.9202 14.5342 39.9149 25.9564 42.9723C37.5605 46.0777 44.1329 42.8819 46.9571 40.7776C47.9805 40.0156 48.7253 38.9385 49.0768 37.712L52.4977 25.7833L9.35252 14.8485Z" fill="url(#paint0_linear_295_3890)"/>
<path id="Vector_2" d="M34.0952 0.350695L1.58913 9.45522C1.2096 9.56071 0.865938 9.7675 0.594984 10.0534C0.324029 10.3394 0.135996 10.6936 0.051055 11.0783C-0.0338861 11.4629 -0.0125309 11.8635 0.112817 12.2369C0.238166 12.6103 0.462784 12.9426 0.762598 13.1981C7.20486 18.7081 21.8464 31.5428 27.3916 38.9961C27.6804 39.3834 28.0902 39.6633 28.5561 39.7914C29.0219 39.9195 29.5172 39.8885 29.9635 39.7033L62.8521 26.0908C63.1939 25.9502 63.4941 25.7246 63.7244 25.4354C63.9546 25.1462 64.1071 24.803 64.1675 24.4384C64.2279 24.0737 64.1942 23.6997 64.0696 23.3517C63.9449 23.0038 63.7335 22.6934 63.4553 22.4501C57.0754 16.8488 40.8395 2.82668 35.5611 0.456499C35.0999 0.250702 34.5812 0.213259 34.0952 0.350695Z" fill="url(#paint1_linear_295_3890)"/>
<path id="Vector_3" d="M33.428 17.418C33.428 17.418 50.9996 26.1184 52.3385 28.1067C53.6774 30.0949 50.9822 39.13 50.9822 39.13C53.748 46.778 54.1579 55.0824 49.4847 59.4268C49.4847 59.4268 43.7247 49.3702 46.2979 45.1316C48.8711 40.893 49.8634 39.1567 49.8634 39.1567C49.8634 39.1567 52.1148 29.5241 51.4022 28.147C51.4022 28.1455 31.9369 17.9695 33.428 17.418Z" fill="url(#paint2_linear_295_3890)"/>
<path id="Vector_4" opacity="0.44" d="M5.9633 12.4693L22.5962 28.877L26.756 32.9789L27.795 34.0044L28.3141 34.5144C28.4789 34.6725 28.6609 34.8117 28.8566 34.9295C29.247 35.1671 29.6849 35.3159 30.1392 35.3653C30.5935 35.4147 31.0532 35.3635 31.4855 35.2153L42.5623 31.5076C42.6037 31.4954 42.6482 31.4997 42.6865 31.5196C42.7248 31.5395 42.754 31.5734 42.7679 31.6143C42.7817 31.6551 42.7793 31.6998 42.7611 31.7389C42.7428 31.778 42.7101 31.8085 42.6699 31.8241L31.6211 35.6222C31.1302 35.7939 30.6075 35.8556 30.0901 35.803C29.5727 35.7503 29.0732 35.5846 28.627 35.3174C28.4041 35.1835 28.1964 35.0258 28.0075 34.8472L27.4812 34.3372L26.434 33.3198L22.2444 29.2505L5.48673 12.973C5.42454 12.9086 5.38985 12.8226 5.39 12.7331C5.39015 12.6435 5.42514 12.5576 5.48755 12.4934C5.54996 12.4293 5.63489 12.3919 5.72437 12.3892C5.81384 12.3866 5.90082 12.4189 5.96691 12.4793L5.9633 12.4693Z" fill="white"/>
<path id="Vector_5" opacity="0.44" d="M49.657 43.4967L49.6247 43.5251L49.5862 43.5616L49.5091 43.6345L49.3612 43.7971C49.2635 43.9065 49.182 44.0268 49.0843 44.1413L48.8396 44.5058C48.7635 44.6305 48.6972 44.7603 48.6246 44.8872C48.5526 45.0147 48.4889 45.1451 48.4337 45.278C48.3763 45.4107 48.3127 45.5419 48.2598 45.6761L48.1191 46.0837C48.0743 46.2208 48.0196 46.3549 47.991 46.4956L47.8888 46.9127C47.8565 47.052 47.8144 47.1905 47.7992 47.3327C47.758 47.6149 47.7096 47.8978 47.6746 48.1807L47.6235 49.0367C47.6235 49.1096 47.6137 49.1825 47.6128 49.2511L47.6191 49.4654L47.6316 49.8949C47.6253 50.4687 47.7212 51.0396 47.7786 51.612C47.7902 51.7578 47.8189 51.8971 47.8476 52.0393L47.93 52.4658C47.9865 52.7495 48.0358 53.0346 48.0985 53.3182C48.2545 53.8796 48.396 54.4455 48.5645 55.0054L49.1417 56.6722V56.6774C49.1506 56.7019 49.1471 56.7283 49.1321 56.7508C49.1171 56.7733 49.0916 56.79 49.0615 56.7973C49.0313 56.8045 48.9988 56.8017 48.9711 56.7895C48.9435 56.7773 48.9229 56.7566 48.914 56.732L48.2795 55.0674C48.0922 54.5067 47.9309 53.9394 47.7553 53.3751C47.6827 53.09 47.6235 52.8027 47.5572 52.5162L47.4595 52.086C47.4264 51.9401 47.3932 51.7994 47.3762 51.6543C47.3 51.071 47.1835 50.4957 47.171 49.9095L47.1441 49.472L47.1306 49.2533C47.1306 49.1803 47.1306 49.1074 47.1306 49.0345L47.1539 48.1537C47.1826 47.8621 47.2212 47.5704 47.2552 47.2787C47.2721 47.1319 47.2984 46.9859 47.3341 46.8413L47.4237 46.4038C47.4488 46.2579 47.5008 46.1121 47.5438 45.9707L47.6782 45.539C47.7293 45.3932 47.792 45.2568 47.8485 45.1154C47.9025 44.9727 47.9659 44.8325 48.0385 44.6954C48.1111 44.5576 48.1783 44.4183 48.2553 44.282L48.5081 43.8795C48.6066 43.7504 48.6963 43.6177 48.8038 43.4909L48.9678 43.3013L49.0574 43.2072L49.1049 43.1606L49.1623 43.1088C49.1922 43.0817 49.2284 43.0598 49.2688 43.0441C49.3092 43.0284 49.353 43.0194 49.3977 43.0175C49.4424 43.0156 49.4871 43.0209 49.5293 43.033C49.5714 43.0452 49.6103 43.064 49.6435 43.0884C49.6768 43.1128 49.7038 43.1422 49.723 43.1751C49.7423 43.2079 49.7534 43.2436 49.7557 43.2799C49.7581 43.3163 49.7516 43.3527 49.7366 43.387C49.7217 43.4213 49.6986 43.4529 49.6686 43.4799L49.657 43.4967Z" fill="white"/>
<path id="Vector_6" opacity="0.44" d="M50.1128 47.3219V47.8424L50.1209 48.4282L50.1506 49.6042L50.2289 51.9561L50.4126 56.6605C50.411 56.6972 50.3822 56.7322 50.3321 56.7584C50.282 56.7845 50.2145 56.7998 50.1432 56.8012C50.072 56.8025 50.0025 56.7897 49.9489 56.7656C49.8953 56.7414 49.8616 56.7075 49.8548 56.671L49.4361 51.9686L49.2403 49.6167L49.1525 48.4401L49.1147 47.85L49.0998 47.5529V47.4033C49.0998 47.3393 49.1093 47.2641 49.1214 47.1946C49.1307 47.1276 49.1903 47.0652 49.2876 47.0206C49.3849 46.976 49.5121 46.9527 49.6422 46.9557C49.7723 46.9587 49.8949 46.9877 49.9841 47.0366C50.0733 47.0855 50.1218 47.1504 50.1195 47.2175L50.1128 47.3219Z" fill="white"/>
</g>
<defs>
<linearGradient id="paint0_linear_295_3890" x1="62224.8" y1="19052.6" x2="62821.9" y2="3016.66" gradientUnits="userSpaceOnUse">
<stop stop-color="#FE7062"/>
<stop offset="1" stop-color="#FF928E"/>
</linearGradient>
<linearGradient id="paint1_linear_295_3890" x1="94871.8" y1="2302.2" x2="91769.6" y2="18395.5" gradientUnits="userSpaceOnUse">
<stop stop-color="#FE7062"/>
<stop offset="1" stop-color="#FF928E"/>
</linearGradient>
<linearGradient id="paint2_linear_295_3890" x1="34067.5" y1="4207.37" x2="24166.7" y2="14769.9" gradientUnits="userSpaceOnUse">
<stop stop-color="#E1473D"/>
<stop offset="1" stop-color="#E9605A"/>
</linearGradient>
</defs>
</svg>

<svg width="65" height="60" fill="none" xmlns="http://www.w3.org/2000/svg"><path d="M9.353 14.848L6.227 26.112a5.465 5.465 0 00.711 4.489c2.204 3.32 7.596 9.314 19.018 12.371 11.604 3.106 18.177-.09 21.001-2.194a5.822 5.822 0 002.12-3.066l3.42-11.929L9.354 14.848z" fill="url(#paint0_linear_295_3890)"/><path d="M34.095.35L1.59 9.456a2.17 2.17 0 00-.826 3.743c6.442 5.51 21.083 18.345 26.629 25.798a2.17 2.17 0 002.572.707l32.888-13.612a2.17 2.17 0 00.603-3.64C57.075 16.848 40.84 2.826 35.561.455A2.157 2.157 0 0034.095.35z" fill="url(#paint1_linear_295_3890)"/><path d="M33.428 17.418s17.572 8.7 18.91 10.689c1.34 1.988-1.356 11.023-1.356 11.023 2.766 7.648 3.176 15.952-1.497 20.297 0 0-5.76-10.057-3.187-14.295 2.573-4.239 3.565-5.975 3.565-5.975s2.252-9.633 1.54-11.01c0-.002-19.466-10.177-17.975-10.729z" fill="url(#paint2_linear_295_3890)"/><path opacity=".44" d="M5.963 12.47l16.633 16.407 4.16 4.102 1.039 1.025.52.51a3.115 3.115 0 003.171.7l11.076-3.706a.167.167 0 01.108.316l-11.05 3.798a3.55 3.55 0 01-3.613-.775l-.527-.51-1.047-1.017-4.19-4.07L5.487 12.973a.344.344 0 01.48-.494l-.004-.01zm43.694 31.027l-.032.028-.039.037-.077.073-.148.162c-.097.11-.179.23-.277.344l-.244.365c-.077.124-.143.254-.215.381a3.614 3.614 0 00-.191.391c-.058.133-.121.264-.174.398l-.14.408c-.046.137-.1.27-.129.412l-.102.417c-.033.139-.075.278-.09.42-.041.282-.09.565-.124.848l-.051.856c0 .073-.01.145-.011.214l.006.214.013.43c-.007.574.09 1.145.147 1.717.011.146.04.285.069.427l.082.427c.056.283.106.569.169.852.156.562.297 1.128.466 1.687l.577 1.667v.005a.08.08 0 01-.01.074.117.117 0 01-.07.046.144.144 0 01-.09-.008.103.103 0 01-.058-.057l-.635-1.665c-.187-.56-.348-1.128-.524-1.692-.072-.285-.132-.572-.198-.859l-.098-.43c-.033-.146-.066-.287-.083-.432-.076-.583-.192-1.158-.205-1.745l-.027-.437-.013-.219v-.218l.023-.881c.029-.292.067-.584.101-.875.017-.147.043-.293.08-.438l.089-.437c.025-.146.077-.292.12-.433l.134-.432c.051-.146.114-.282.17-.424.055-.142.118-.282.19-.42.073-.137.14-.277.217-.413l.253-.402c.099-.13.188-.262.296-.39l.164-.189.09-.094.047-.046.057-.052a.343.343 0 01.107-.065.404.404 0 01.375.044c.033.025.06.054.079.087a.229.229 0 01.014.212.27.27 0 01-.068.093l-.012.017z" fill="#fff"/><path opacity=".44" d="M50.113 47.322v.52l.008.586.03 1.176.078 2.352.184 4.704c-.002.037-.03.072-.08.098a.439.439 0 01-.19.043.466.466 0 01-.194-.035c-.054-.025-.087-.058-.094-.095l-.419-4.702-.196-2.352-.087-1.177-.038-.59-.015-.297v-.15c0-.064.01-.139.021-.208.01-.067.07-.13.167-.174a.83.83 0 01.354-.065.78.78 0 01.342.08c.09.05.138.114.136.181l-.007.105z" fill="#fff"/><defs><linearGradient id="paint0_linear_295_3890" x1="62224.8" y1="19052.6" x2="62821.9" y2="3016.66" gradientUnits="userSpaceOnUse"><stop stop-color="#FE7062"/><stop offset="1" stop-color="#FF928E"/></linearGradient><linearGradient id="paint1_linear_295_3890" x1="94871.8" y1="2302.2" x2="91769.6" y2="18395.5" gradientUnits="userSpaceOnUse"><stop stop-color="#FE7062"/><stop offset="1" stop-color="#FF928E"/></linearGradient><linearGradient id="paint2_linear_295_3890" x1="34067.5" y1="4207.37" x2="24166.7" y2="14769.9" gradientUnits="userSpaceOnUse"><stop stop-color="#E1473D"/><stop offset="1" stop-color="#E9605A"/></linearGradient></defs></svg>
